public/assets/img/tech-logo/js.svg

<svg width="100" height="100" viewBox="0 0 100 100" fill="none" xmlns="http://www.w3.org/2000/svg">
<g id="js">
<g id="js_2">
<path id="Vector" d="M100 0.000488281H0V100H100V0.000488281Z" fill="#F7DF1E"/>
<path id="Vector_2" d="M67.1745 78.1259C69.1888 81.4148 71.8094 83.8323 76.4444 83.8323C80.338 83.8323 82.8253 81.8862 82.8253 79.1973C82.8253 75.9751 80.2698 74.8339 75.9841 72.9592L73.6348 71.9513C66.8539 69.0624 62.3491 65.4434 62.3491 57.7926C62.3491 50.745 67.719 45.3799 76.111 45.3799C82.0856 45.3799 86.3809 47.4592 89.4761 52.9037L82.1586 57.6021C80.5475 54.7132 78.8094 53.5751 76.111 53.5751C73.3587 53.5751 71.6142 55.3212 71.6142 57.6021C71.6142 60.4212 73.3602 61.5624 77.392 63.3085L79.7412 64.3148C87.7253 67.7386 92.2333 71.2291 92.2333 79.0767C92.2333 87.537 85.5872 92.1719 76.6618 92.1719C67.9348 92.1719 62.2967 88.0132 59.538 82.5624L67.1745 78.1259ZM33.9793 78.9402C35.4555 81.5592 36.7983 83.7735 40.0269 83.7735C43.1142 83.7735 45.0618 82.5656 45.0618 77.8688V45.9164H54.4586V77.9958C54.4586 87.7259 48.7539 92.1545 40.4269 92.1545C32.9031 92.1545 28.546 88.2608 26.3301 83.5712L33.9793 78.9402Z" fill="black"/>
</g>
</g>
</svg>

<svg xmlns="http://www.w3.org/2000/svg" width="100" height="100" fill="none"><path fill="#F7DF1E" d="M100 0H0v100h100z"/><path fill="#000" d="M67.175 78.126c2.014 3.289 4.634 5.706 9.27 5.706 3.893 0 6.38-1.946 6.38-4.635 0-3.222-2.555-4.363-6.84-6.238l-2.35-1.008c-6.781-2.889-11.286-6.508-11.286-14.158 0-7.048 5.37-12.413 13.762-12.413 5.975 0 10.27 2.08 13.365 7.524l-7.317 4.698c-1.612-2.889-3.35-4.027-6.048-4.027-2.752 0-4.497 1.746-4.497 4.027 0 2.82 1.746 3.96 5.778 5.707l2.35 1.006c7.983 3.424 12.491 6.914 12.491 14.762 0 8.46-6.646 13.095-15.571 13.095-8.727 0-14.365-4.159-17.124-9.61zm-33.196.814c1.477 2.62 2.82 4.834 6.048 4.834 3.087 0 5.035-1.208 5.035-5.905V45.916h9.397v32.08c0 9.73-5.705 14.159-14.032 14.159-7.524 0-11.881-3.894-14.097-8.584z"/></svg>
